X:1
T:Cousin Mary
T:Cousin Mary
T:John Coltrane
C:John Coltrane
Z:All Rights Reserved
L:1/4
M:4/4
K:Ab
U:s=!stemless!
V:1 treble 
V:1
|:"^Theme" z"C7#9" .E"Eb7#9" ^F3/2"Ab7" E/- | E4 | z"C7#9" .E"Eb7#9" .^F3/2"Ab7" E/- | E4 | %4
 z"Ab7" .E"D7" ^F3/2"Db9" A/- | A4 | z"C7#9" .E"Eb7#9" ^F3/2"Ab7" E/- | E4 | %8
 z/"D9#11" A/ ^F/A/- A F/A/- |"Db9" A3/2 ^F/ E/E/ D | z"C7#9" .E"Eb7#9" ^F3/2"Ab7" E/- | E4 :| %12
"Ab7""^Solo" sB sB sB sB | sB sB sB sB | sB sB sB sB | sB sB sB sB |"Db7" sB sB sB sB | %17
 sB sB sB sB |"Ab7" sB sB sB sB | sB sB sB sB |"D7" sB sB sB sB |"Db7" sB sB sB sB | %22
"C7#9" sB sB"Eb7#9" sB sB |"Ab7" sB sB sB sB |] %24

